X: 32078
T: Penny On The Water
R: hornpipe
M: 4/4
K: Dmajor
(3ABc|d2 d2 d2 d2|c>d e>c d4|f2 f2 f2 f2|
e>f g>e f4|g>a b>g e2 e2|f>g a>f d2 d2|
e>f g>e c>A B>c|d>e f>g a2 a2|g>a b>g e2 e2|
f>g a>f d2 d2|e>f g>e c>A B>c|d2 f2 d2||

